components/icon/style/assets/cross-circle.svg

<?xml version="1.0" encoding="UTF-8"?>
<svg width="48px" height="48px" viewBox="0 0 48 48" version="1.1" xmlns="http://www.w3.org/2000/svg" xmlns:xlink="http://www.w3.org/1999/xlink">
    <defs></defs>
    <g id="Page-1" stroke="none" stroke-width="1" fill-rule="evenodd">
        <g id="step-48-错误" >
            <path d="M24,48 C37.2552,48 48,37.2552 48,24 C48,10.7448 37.2552,0 24,0 C10.7448,0 0,10.7448 0,24 C0,37.2552 10.7448,48 24,48 Z M24,45 C35.5983,45 45,35.5983 45,24 C45,12.4017 35.5983,3 24,3 C12.4017,3 3,12.4017 3,24 C3,35.5983 12.4017,45 24,45 Z" id="Combined-Shape"></path>
            <path d="M24.3392549,22.2189068 L16.5648998,14.4445518 C15.9703079,13.8499598 15.0255464,13.8549458 14.43976,14.4407322 C13.8498895,15.0306027 13.8556836,15.9779762 14.4435795,16.5658721 L22.2179346,24.3402272 L14.4435795,32.1145823 C13.8556836,32.7024782 13.8498895,33.6498517 14.43976,34.2397221 C15.0255464,34.8255086 15.9703079,34.8304945 16.5648998,34.2359026 L24.3392549,26.4615475 L32.11361,34.2359026 C32.7082019,34.8304945 33.6529634,34.8255086 34.2387498,34.2397221 C34.8286203,33.6498517 34.8228262,32.7024782 34.2349303,32.1145823 L26.4605753,24.3402272 L34.2349303,16.5658721 C34.8228262,15.9779762 34.8286203,15.0306027 34.2387498,14.4407322 C33.6529634,13.8549458 32.7082019,13.8499598 32.11361,14.4445518 L24.3392549,22.2189068 Z" id="Combined-Shape"></path>
        </g>
    </g>
</svg>

<svg width="48" height="48" viewBox="0 0 48 48" xmlns="http://www.w3.org/2000/svg"><g fill-rule="evenodd"><path d="M24 48c13.255 0 24-10.745 24-24S37.255 0 24 0 0 10.745 0 24s10.745 24 24 24zm0-3c11.598 0 21-9.402 21-21S35.598 3 24 3 3 12.402 3 24s9.402 21 21 21z"/><path d="M24.34 22.219l-7.775-7.774a1.499 1.499 0 1 0-2.121 2.121l7.774 7.774-7.774 7.775a1.499 1.499 0 1 0 2.12 2.12l7.775-7.773 7.775 7.774a1.499 1.499 0 1 0 2.121-2.121L26.46 24.34l7.774-7.774a1.499 1.499 0 1 0-2.121-2.121l-7.775 7.774z"/></g></svg>
